X: 771
M: C|
L: 1/8
K: F
fg |\
a2f2 c2f2 | f4 A4 | BcdB GABG | ABAG F2fg |\
a2f2 b2a2 | g4 f4 | efg2 G2=B2 | c6 :|
|: cB |\
a2 f4 d2 | b2 g4 f2 | efg2 c2e2 | f6 :|

